!!!COM: Palestrina, Giovanni Perluigi da
!!!OPR: Lauda Sion
!!!OTL: Gloria
**kern	**kern	**kern	**kern
*Ibass	*Itenor	*Icalto	*Icant
!Bassus	!Tenor	!Altus	!Cantus
*clefF4	*clefGv2	*clefG2	*clefG2
*k[]	*k[]	*k[]	*k[]
*G:mix	*G:mix	*G:mix	*G:mix
*M4/2	*M4/2	*M4/2	*M4/2
=1	=1	=1	=1
0r	1D	1d	1r
.	2.G	2.B	1d
.	4A	4c	.
=2	=2	=2	=2
0r	2B	2d	1g
.	2c	2e	.
.	2B	2d	1g
.	2c	2e	.
=3	=3	=3	=3
0r	4F	2f	2a
.	4G	.	.
.	4A	4e	2a
.	4B	4d	.
.	2c	1e	2g
.	2A	.	2cc
=4	=4	=4	=4
1r	2A	2f#	2cc
.	2G	1g	2b
1D	1d	.	1a
.	.	2f#	.
=5	=5	=5	=5
1G	2.d	1g	2.b
.	4d	.	4b
2G	2e	2.g	2b
2G	2d	.	2b
.	.	4g	.
=6	=6	=6	=6
1A	1c	2e	1cc
.	.	2f#	.
1G	1d	1g	[1b
=7	=7	=7	=7
1G	2r	1d	1b]
.	2B	.	.
2E	2c	1r	1r
2F#	2A	.	.
=8	=8	=8	=8
1G	2B	2r	2r
.	2G	2g	2b
1r	2G	2g	2b
.	[2A	[2e	[2cc
=9	=9	=9	=9
1r	4A]	4e]	4cc]
.	4A	4e	4cc
.	2d	2f#	2a
2r	2G	1g	2b
[2G	[2d	.	[2cc
=10	=10	=10	=10
2G]	2d]	2.g	2cc]
2G	2d	.	2b
.	.	4g	.
2C	2e	2g	2cc
2C	2e	2g	2cc
=11	=11	=11	=11
2D	2d	1f#	1a
2D	2d	.	.
2E	2c	2r	2r
2G	2B	2d	2dd
=12	=12	=12	=12
4C	2A	2e	2cc
4D	.	.	.
4E	2G	2g	2b
8D	.	.	.
8E	.	.	.
2F	2.c	2f	2a
2C	.	2e	[2g
.	4B	.	.
=13	=13	=13	=13
1D	4A	2.d	4g]
.	4G	.	8f
.	.	.	8e
.	2A	.	2f#
.	.	4c	.
2r	2G	2B	1g
[2C	[2c	[2e	.
=14	=14	=14	=14
2C]	2c]	2e]	2r
2C	2c	2e	2.g
1C	1c	1e	.
.	.	.	4g
.	.	.	2g
=15	=15	=15	=15
1F	1c	1f	1a
2C	2c	2e	2g
2C	2c	2e	2g
=16	=16	=16	=16
1D	1A	1d	1f
1AA	2A	1c#	1e
.	[2A	.	.
=17	=17	=17	=17
1D	2A]	0r	0r
.	1B	.	.
1E	.	.	.
.	2G	.	.
=18	=18	=18	=18
2C	2E	0r	0r
2AA	2.A	.	.
1D	.	.	.
.	4G	.	.
.	2F	.	.
=19	=19	=19	=19
2C	4E	0r	1r
.	4F#	.	.
2BB	2.G	.	.
1AA	.	.	2.a
.	8F#	.	.
.	8E	.	.
.	2F#	.	.
.	.	.	4a
=20	=20	=20	=20
1GG	1G	2.d	1b
.	.	4d	.
1r	1r	2e	2g
.	.	2c	2e
=21	=21	=21	=21
0r	0r	2A	1a
.	.	2f	.
.	.	2e	2g
.	.	[2d	[2f
=22	=22	=22	=22
1r	1.A	2d]	2f]
.	.	2c#	2e
1D	.	1d	1f#
.	[2B	.	.
=23	=23	=23	=23
1E	2B]	1B	1g
.	2G	.	.
2C	2E	1c	2g
2AA	[2A	.	2a
=24	=24	=24	=24
1D	4A]	1A	1f
.	4G	.	.
.	2F	.	.
2C	2E	2c	2g
2BB	2D	[2d	2g
=25	=25	=25	=25
1AA	1E	2d]	2.a
.	.	2c#	.
.	.	.	4g
2r	1D	[1d	[1f#
[2D	.	.	.
=26	=26	=26	=26
4D]	2r	1d]	1f#]
4D	.	.	.
2D	2.A	.	.
2D	.	1r	1r
.	4A	.	.
2C#	2A	.	.
=27	=27	=27	=27
2D	2A	0r	0r
2E	2G#	.	.
2F	2A	.	.
2G	2B	.	.
=28	=28	=28	=28
1E	2c	2r	1r
.	2B	1g	.
[1D	1d	.	[1a
.	.	4f	.
.	.	4e	.
=29	=29	=29	=29
1D]	1.d	1f	1a]
[1A	.	[1e	[1a
.	4c	.	.
.	4B	.	.
=30	=30	=30	=30
1A]	1c#	1e]	1a]
1G	1d	[1g	1b
=31	=31	=31	=31
1C	1e	1g]	1cc
1G	1d	2g	2b
.	.	[2g	[2b
=32	=32	=32	=32
0r	0r	4g]	4b]
.	.	4g	4b
.	.	2e	2cc
.	.	2f	2a
.	.	2d	2b
=33	=33	=33	=33
0r	0r	2e	2cc
.	.	2g	2b
.	.	1f	1a
=34	=34	=34	=34
1.C	1.c	2e	2g
.	.	1e	1g
2C	2c	2e	2g
=35	=35	=35	=35
0C	2.c	0e	1g
.	4B	.	.
.	2A	.	[1cc
.	[2G	.	.
=36	=36	=36	=36
1AA	2G]	2.c	1cc]
.	2F#	.	.
.	.	4d	.
[1GG	[1G	1e	[1b
=37	=37	=37	=37
1GG_	1G_	1d	1b_
1GG_	1G_	[1d	1b_
=38	=38	=38	=38
1GG]	1G]	1d]	1b]
1C	1c	1e	1g
=39	=39	=39	=39
1F	1c	1f	1a
4C	2c	2e	[1g
4D	.	.	.
4E	4B	2e	.
4F	4A	.	.
=40	=40	=40	=40
2G	2B	2d	2g]
2E	2c	2.e	2g
2F#	2A	.	2a
.	.	4d	.
2G	2B	[2d	2g
=41	=41	=41	=41
1E	1G	2d]	1g
.	.	2c#	.
1D	2A	2d	2f#
.	[2d	[2f#	[2a
=42	=42	=42	=42
1r	2d]	2f#]	2a]
.	2G	2g	2b-
1r	2.d	2.f	1a
.	4c	4e	.
=43	=43	=43	=43
1r	2B	2d	2g
.	2A	2c	2.a
1r	2B	2d	.
.	.	.	4g
.	2c	2e	[2g
=44	=44	=44	=44
1D	1A	1d	2g]
.	.	.	2f#
1G	2r	2r	2g
.	2G	2B	2d
=45	=45	=45	=45
1G	1B	1d	1g
1E	2B	2e	2g
.	2B	2e	2g
=46	=46	=46	=46
2D	2d	2f	2a
2D	2d	2f	2b
1C	1G	1e	1cc
=47	=47	=47	=47
2GG	2G	2d	2b
2.D	2.F#	2.d	2.a
4D	4F#	4d	4a
2D	2F#	2d	2a
=48	=48	=48	=48
2.GG	2.G	2.d	2.b
4GG	4G	4d	4b
2GG	2G	2d	2b
2D	2F#	2d	2a
=49	=49	=49	=49
2C	2G	2e	2cc
2E	2G	2e	2b
1D	1A	1f#	1dd
=50	=50	=50	=50
1GG	2G	2g	2b
.	2B	2d	2g
1r	1c	1e	1g
=51	=51	=51	=51
1r	2A	2e	2a
.	2d	2f#	2a
1r	2.G	2.g	2.b
.	4G	4g	4b
=52	=52	=52	=52
1r	2A	2e	2cc
.	1F	1f	1a
1r	.	.	.
.	[2c	[2e	[2g
=53	=53	=53	=53
1G	2c]	2e]	2g]
.	1B	1d	1g
1G	.	.	.
.	2B	2d	2g
=54	=54	=54	=54
2E	2c	2e	2g
2F	2c	1c	2a
1D	1d	.	1f
.	.	2B	.
=55	=55	=55	=55
1C	1G	1c	1e
!! Quoniam
*Ibass	*Itenor	*Icalto	*Icant
!Bassus	!Tenor	!Altus	!Cantus
*clefF4	*clefGv2	*clefG2	*clefG2
*k[]	*k[]	*k[]	*k[]
*G:mix	*G:mix	*G:mix	*G:mix
*M3/2	*M3/2	*M3/2	*M3/2
=56	=56	=56	=56
1G	1B	1d	1g
2G	2B	2d	2g
=57	=57	=57	=57
1F	1c	1f	1a
2C	2c	2e	2g
=58	=58	=58	=58
1G	1d	1g	1b
2E	2G	2g	2cc#
=59	=59	=59	=59
1D	1A	1f#	1dd
2D	2A	2f#	2dd
=60	=60	=60	=60
2G	2B	2g	2dd
2G	2d	2g	2b
2G	2d	2g	2b
=61	=61	=61	=61
1C	1e	1g	1cc
2C	2e	2g	2cc
=62	=62	=62	=62
1G	1d	1g	1b
2G	2B	2d	2g
=63	=63	=63	=63
1F	1c	1f	1a
2C	2c	2e	2g
=64	=64	=64	=64
2C	2c	2e	2g
2G	2B	2d	2b
2E	2G	2g	2cc#
=65	=65	=65	=65
2D	2A	2f#	2dd
1G	1B	1g	1dd
=66	=66	=66	=66
1A	1c	2.e	2cc
.	.	.	2.ee
.	.	4f	.
[2B-	[2d	2g	.
.	.	.	4dd
=67	=67	=67	=67
2B-]	2d]	4f	2.dd
.	.	4g	.
1A	1e	1a	.
.	.	.	8cc
.	.	.	8b
.	.	.	2cc#
=68	=68	=68	=68
1D	1d	2f#	1dd
.	.	2r	.
2D	2d	2f#	2a
=69	=69	=69	=69
1G	1d	1g	1b
2G	2d	2g	2b
=70	=70	=70	=70
1C	1e	1g	1cc
2C	2e	2g	2cc
=71	=71	=71	=71
1.G	2.d	1g	1b
.	4c	.	.
.	4B	2d	2dd
.	4A	.	.
=72	=72	=72	=72
1G	1B	2.g	2.dd
.	.	4g	4dd
2r	2r	2e	2ee
=73	=73	=73	=73
1r	1r	2.f	2cc
.	.	.	2a
.	.	4d	.
2r	2r	2e	2cc
=74	=74	=74	=74
2r	2r	1g	2b
2r	2r	.	2a
2D	2d	2f#	2a
=75	=75	=75	=75
2.G	2.d	1.g	2.b
4G	4d	.	4b
2E	2e	.	2cc
=76	=76	=76	=76
2.F	2c	2.f	2a
.	2A	.	2a
4D	.	4f	.
2E	2c	2e	2g
=77	=77	=77	=77
2G	2B	2d	1g
1D	1A	1d	.
.	.	.	2f#
=78	=78	=78	=78
[1.GG	[1.G	[1.d	[1.g
=79	=79	=79	=79
1.GG]	1.G]	1.d]	1.g]
==	==	==	==
*-	*-	*-	*-
!!!CDT: 1525/^1526/-1594/2/2
!!!OCY: Italia
!!!AGN: Mass (Parody)
!!!AST: renaissance, vocal
!!!ASW: Motet 1563 (Palestrina)
!!!PWK: Masses, Book 4
!!!RNB: Cadence finals: D
!!!YOR: Le Opere Complete, v. 10, p. 1
!!!YOO: Rome, Italy: Fratelli Scalera
!!!END: 1992//
!!!EED: John Miller
!!!YEC: Copyright 2000, John Miller
!!!YEN: United States of America
!!!YEM: Rights to all derivative electronic formats reserved.
!!!YEM: Refer to licensing agreement for further details.
!!!YEM: This file must be accompanied by the licensing agreement.
!!!YEM: A copy of the licensing agreement may be found at http://www.music-cog.ohio-state.edu/HumdrumDatabases/Palestrina/license.txt
!!!EMD: converted to Humdrum by Bret Aarden
